X:01
T: Bobby Casey's
S: Pat O'Connor's "Green Mountain", Na Connery's Part II
Z: Zina Lee, zlee@ntw.net
R: reel
M: 4/4
L: 1/8
Z: Contributed 20010831163543 by Zina Lee zlee@ntw.net
K: C
DE|:F2DE F2DE|FEFG ECCE|F2DE FGAG|FDEC A,D DE|!
F2DE FGAB|cAGF EDCE|DEFG AddB|cAGE EDD2:|!
|:d2 Ad dcAG|F2DF ECC2|d3d dcAG|ABcA d3e|!
fded cAAG|EGcG EDCE|DEFG AddB|cAGE EDD2:|]!
